icons/midnadark/actions/24/run-build-prune.svg

<?xml version="1.0" encoding="UTF-8" standalone="no"?>
<!-- Created with Inkscape (http://www.inkscape.org/) -->

<svg
   xmlns:sketch="http://www.bohemiancoding.com/sketch/ns"
   xmlns:dc="http://purl.org/dc/elements/1.1/"
   xmlns:cc="http://creativecommons.org/ns#"
   xmlns:rdf="http://www.w3.org/1999/02/22-rdf-syntax-ns#"
   xmlns:svg="http://www.w3.org/2000/svg"
   xmlns="http://www.w3.org/2000/svg"
   xmlns:sodipodi="http://sodipodi.sourceforge.net/DTD/sodipodi-0.dtd"
   xmlns:inkscape="http://www.inkscape.org/namespaces/inkscape"
   width="22"
   height="22"
   id="svg3869"
   version="1.1"
   inkscape:version="0.91 r13725"
   sodipodi:docname="run-build-prune.svg">
  <defs
     id="defs3871">
    <linearGradient
       id="linearGradient3257">
      <stop
         id="stop3259"
         style="stop-color:#a50000;stop-opacity:1"
         offset="0" />
      <stop
         id="stop3261"
         style="stop-color:#e73800;stop-opacity:1"
         offset="1" />
    </linearGradient>
    <clipPath
       id="clipPath4210"
       clipPathUnits="userSpaceOnUse">
      <rect
         style="opacity:1;fill:#0000ff;fill-opacity:0.51376145;stroke:none;stroke-opacity:1"
         id="rect4212"
         width="34"
         height="34"
         x="-7"
         y="1024.3622" />
    </clipPath>
    <clipPath
       id="clipPath4160"
       clipPathUnits="userSpaceOnUse">
      <rect
         y="1028.3619"
         x="-6"
         height="32.000015"
         width="32"
         id="rect4162"
         style="opacity:1;fill:#aade87;fill-opacity:0.47247709;stroke:none;stroke-opacity:1" />
    </clipPath>
    <linearGradient
       id="linearGradient5263">
      <stop
         id="stop5265"
         style="stop-color:#a0d5ff;stop-opacity:1"
         offset="0" />
      <stop
         id="stop5267"
         style="stop-color:#a0d5ff;stop-opacity:1"
         offset="1" />
    </linearGradient>
    <clipPath
       id="clipPath4458">
      <path
         inkscape:connector-curvature="0"
         id="use4460"
         d="m 69.626,12.145 -0.052,0 c -22.727,-0.292 -46.472,4.077 -46.709,4.122 -2.424,0.451 -4.946,2.974 -5.397,5.397 -0.044,0.237 -4.414,23.983 -4.122,46.71 -0.292,22.777 4.078,46.523 4.122,46.761 0.451,2.423 2.974,4.945 5.398,5.398 0.237,0.044 23.982,4.413 46.709,4.121 22.779,0.292 46.524,-4.077 46.761,-4.121 2.423,-0.452 4.946,-2.976 5.398,-5.399 0.044,-0.236 4.413,-23.981 4.121,-46.709 0.292,-22.777 -4.077,-46.523 -4.121,-46.761 -0.453,-2.423 -2.976,-4.946 -5.398,-5.397 -0.238,-0.045 -23.984,-4.414 -46.71,-4.122 z" />
    </clipPath>
    <linearGradient
       id="linearGradient4237">
      <stop
         id="stop4239"
         style="stop-color:#ff594d;stop-opacity:1"
         offset="0" />
      <stop
         id="stop4241"
         style="stop-color:#ff7f76;stop-opacity:1"
         offset="1" />
    </linearGradient>
    <linearGradient
       id="linearGradient4210">
      <stop
         offset="0"
         style="stop-color:#ff584c;stop-opacity:1"
         id="stop4212" />
      <stop
         offset="1"
         style="stop-color:#ff8077;stop-opacity:1"
         id="stop4214" />
    </linearGradient>
    <linearGradient
       id="linearGradient4179">
      <stop
         id="stop4181"
         style="stop-color:#ffee5e;stop-opacity:1"
         offset="0" />
      <stop
         id="stop4183"
         style="stop-color:#feff8b;stop-opacity:1"
         offset="1" />
    </linearGradient>
    <linearGradient
       id="linearGradient4210-3">
      <stop
         id="stop4212-1"
         style="stop-color:#ffce69;stop-opacity:1"
         offset="0" />
      <stop
         id="stop4214-6"
         style="stop-color:#ffce54;stop-opacity:1"
         offset="1" />
    </linearGradient>
    <linearGradient
       id="linearGradient4237-0">
      <stop
         offset="0"
         style="stop-color:#ffee5e;stop-opacity:1"
         id="stop4239-8" />
      <stop
         offset="1"
         style="stop-color:#feff9f;stop-opacity:1"
         id="stop4241-9" />
    </linearGradient>
    <linearGradient
       id="linearGradient4237-2">
      <stop
         offset="0"
         style="stop-color:#ffa0a6;stop-opacity:1"
         id="stop4239-7" />
      <stop
         offset="1"
         style="stop-color:#ffa0a5;stop-opacity:1"
         id="stop4241-2" />
    </linearGradient>
    <linearGradient
       id="linearGradient8311">
      <stop
         id="stop8313"
         style="stop-color:#ce89ff;stop-opacity:1"
         offset="0" />
      <stop
         id="stop8315"
         style="stop-color:#e898ff;stop-opacity:1"
         offset="1" />
    </linearGradient>
    <linearGradient
       id="linearGradient4237-8">
      <stop
         offset="0"
         style="stop-color:#cf8aff;stop-opacity:1"
         id="stop4239-2" />
      <stop
         offset="1"
         style="stop-color:#eaa0ff;stop-opacity:1"
         id="stop4241-3" />
    </linearGradient>
    <linearGradient
       id="linearGradient8311-3">
      <stop
         id="stop8313-0"
         style="stop-color:#ffcc6b;stop-opacity:1"
         offset="0" />
      <stop
         id="stop8315-1"
         style="stop-color:#ffcf98;stop-opacity:1"
         offset="1" />
    </linearGradient>
    <linearGradient
       id="linearGradient4237-3">
      <stop
         offset="0"
         style="stop-color:#ffcc6e;stop-opacity:1"
         id="stop4239-0" />
      <stop
         offset="1"
         style="stop-color:#ffe4a0;stop-opacity:1"
         id="stop4241-7" />
    </linearGradient>
    <linearGradient
       id="linearGradient8311-31">
      <stop
         id="stop8313-2"
         style="stop-color:#f089ff;stop-opacity:1"
         offset="0" />
      <stop
         id="stop8315-6"
         style="stop-color:#ffadea;stop-opacity:1"
         offset="1" />
    </linearGradient>
    <linearGradient
       id="linearGradient4237-6">
      <stop
         offset="0"
         style="stop-color:#f18bfe;stop-opacity:1"
         id="stop4239-22" />
      <stop
         offset="1"
         style="stop-color:#fcc3ff;stop-opacity:1"
         id="stop4241-0" />
    </linearGradient>
    <linearGradient
       id="linearGradient8467">
      <stop
         offset="0"
         style="stop-color:#b9b9b9;stop-opacity:1"
         id="stop8469" />
      <stop
         offset="1"
         style="stop-color:#d1d1d1;stop-opacity:1"
         id="stop8471" />
    </linearGradient>
    <linearGradient
       id="linearGradient8311-5">
      <stop
         id="stop8313-7"
         style="stop-color:#b9b9b9;stop-opacity:1"
         offset="0" />
      <stop
         id="stop8315-3"
         style="stop-color:#d2d2d2;stop-opacity:1"
         offset="1" />
    </linearGradient>
    <linearGradient
       id="linearGradient4237-4">
      <stop
         offset="0"
         style="stop-color:#bababa;stop-opacity:1"
         id="stop4239-9" />
      <stop
         offset="1"
         style="stop-color:#c8c8c8;stop-opacity:1"
         id="stop4241-37" />
    </linearGradient>
    <linearGradient
       id="linearGradient8467-7">
      <stop
         offset="0"
         style="stop-color:#3ec896;stop-opacity:1"
         id="stop8469-4" />
      <stop
         offset="1"
         style="stop-color:#66d9af;stop-opacity:1"
         id="stop8471-7" />
    </linearGradient>
    <linearGradient
       id="linearGradient8311-1">
      <stop
         id="stop8313-9"
         style="stop-color:#494949;stop-opacity:1"
         offset="0" />
      <stop
         id="stop8315-5"
         style="stop-color:#616774;stop-opacity:1"
         offset="1" />
    </linearGradient>
    <linearGradient
       gradientUnits="userSpaceOnUse"
       gradientTransform="scale(1.1288018,0.8858951)"
       x1="209.95714"
       y1="0"
       x2="209.95714"
       y2="116.69431"
       id="linearGradient-1">
      <stop
         stop-color="#A7A7A7"
         offset="0%"
         id="stop4884" />
      <stop
         stop-color="#8D8D8D"
         offset="100%"
         id="stop4886" />
    </linearGradient>
    <linearGradient
       gradientUnits="userSpaceOnUse"
       gradientTransform="scale(1.2279807,0.81434507)"
       x1="192.9998"
       y1="411.58423"
       x2="192.9998"
       y2="105.40025"
       id="linearGradient-2">
      <stop
         stop-color="#707070"
         offset="0%"
         id="stop4889" />
      <stop
         stop-color="#ABABAB"
         offset="100%"
         id="stop4891" />
    </linearGradient>
    <linearGradient
       gradientUnits="userSpaceOnUse"
       gradientTransform="scale(1.2279807,0.81434507)"
       x1="192.99979"
       y1="70.608887"
       x2="192.99979"
       y2="457.42279"
       id="linearGradient-3">
      <stop
         stop-color="#000000"
         stop-opacity="0"
         offset="0%"
         id="stop4894" />
      <stop
         stop-color="#000000"
         stop-opacity="0.19"
         offset="100%"
         id="stop4896" />
    </linearGradient>
    <linearGradient
       id="linearGradient4232">
      <stop
         id="stop4234"
         offset="0"
         style="stop-color:#333333;stop-opacity:1" />
      <stop
         id="stop4236"
         offset="1"
         style="stop-color:#353535;stop-opacity:1" />
    </linearGradient>
    <linearGradient
       id="linearGradient4172">
      <stop
         style="stop-color:#3dc796;stop-opacity:1"
         offset="0"
         id="stop4174" />
      <stop
         style="stop-color:#57d68d;stop-opacity:1"
         offset="1"
         id="stop4176" />
    </linearGradient>
    <linearGradient
       id="linearGradient4233">
      <stop
         id="stop4235"
         offset="0"
         style="stop-color:#212121;stop-opacity:1" />
      <stop
         id="stop4237"
         offset="1"
         style="stop-color:#1d2022;stop-opacity:0" />
    </linearGradient>
    <linearGradient
       id="linearGradient8467-6">
      <stop
         offset="0"
         style="stop-color:#56d8d1;stop-opacity:1"
         id="stop8469-5" />
      <stop
         offset="1"
         style="stop-color:#9df7ee;stop-opacity:1"
         id="stop8471-8" />
    </linearGradient>
    <linearGradient
       id="linearGradient8311-10">
      <stop
         id="stop8313-3"
         style="stop-color:#55d8d1;stop-opacity:1"
         offset="0" />
      <stop
         id="stop8315-8"
         style="stop-color:#66efe7;stop-opacity:1"
         offset="1" />
    </linearGradient>
    <linearGradient
       id="linearGradient8467-8">
      <stop
         offset="0"
         style="stop-color:#dea679;stop-opacity:1"
         id="stop8469-9" />
      <stop
         offset="1"
         style="stop-color:#f7d19d;stop-opacity:1"
         id="stop8471-2" />
    </linearGradient>
    <linearGradient
       id="linearGradient8311-0">
      <stop
         id="stop8313-90"
         style="stop-color:#dda579;stop-opacity:1"
         offset="0" />
      <stop
         id="stop8315-88"
         style="stop-color:#f3bc87;stop-opacity:1"
         offset="1" />
    </linearGradient>
    <linearGradient
       id="linearGradient8467-2">
      <stop
         offset="0"
         style="stop-color:#5fa4d5;stop-opacity:1"
         id="stop8469-6" />
      <stop
         offset="1"
         style="stop-color:#9dc9f7;stop-opacity:1"
         id="stop8471-5" />
    </linearGradient>
    <linearGradient
       id="linearGradient8311-06">
      <stop
         id="stop8313-6"
         style="stop-color:#5fa3d4;stop-opacity:1"
         offset="0" />
      <stop
         id="stop8315-2"
         style="stop-color:#6bb9ff;stop-opacity:1"
         offset="1" />
    </linearGradient>
  </defs>
  <sodipodi:namedview
     id="base"
     pagecolor="#ffffff"
     bordercolor="#666666"
     borderopacity="1.0"
     inkscape:pageopacity="0.0"
     inkscape:pageshadow="2"
     inkscape:zoom="11.313708"
     inkscape:cx="-20.87705"
     inkscape:cy="8.4514749"
     inkscape:document-units="px"
     inkscape:current-layer="layer1"
     showgrid="true"
     fit-margin-top="0"
     fit-margin-left="0"
     fit-margin-right="0"
     fit-margin-bottom="0"
     inkscape:window-width="1366"
     inkscape:window-height="633"
     inkscape:window-x="0"
     inkscape:window-y="33"
     inkscape:window-maximized="1"
     inkscape:showpageshadow="false">
    <inkscape:grid
       type="xygrid"
       id="grid4132" />
    <sodipodi:guide
       position="4,18"
       orientation="18,0"
       id="guide4138" />
    <sodipodi:guide
       position="5,3"
       orientation="0,18"
       id="guide4140" />
    <sodipodi:guide
       position="20,2.0000174"
       orientation="-18,0"
       id="guide4142" />
    <sodipodi:guide
       position="2,21"
       orientation="0,-18"
       id="guide4144" />
    <sodipodi:guide
       position="3,19.000017"
       orientation="16,0"
       id="guide4146" />
    <sodipodi:guide
       position="2,4"
       orientation="0,16"
       id="guide4148" />
    <sodipodi:guide
       position="21,20"
       orientation="-16,0"
       id="guide4150" />
    <sodipodi:guide
       position="2,20"
       orientation="0,-16"
       id="guide4152" />
  </sodipodi:namedview>
  <metadata
     id="metadata3874">
    <rdf:RDF>
      <cc:Work
         rdf:about="">
        <dc:format>image/svg+xml</dc:format>
        <dc:type
           rdf:resource="http://purl.org/dc/dcmitype/StillImage" />
        <dc:title />
      </cc:Work>
    </rdf:RDF>
  </metadata>
  <g
     inkscape:label="Capa 1"
     inkscape:groupmode="layer"
     id="layer1"
     transform="translate(-326,-534.3622)">
    <g
       id="g4250"
       transform="translate(-1,1)"
       style="fill:#ffffff;fill-opacity:1">
      <g
         transform="translate(-1.4005019e-7,-1.9776647e-6)"
         inkscape:label="Capa 1"
         id="layer1-6"
         style="fill:#ffffff;fill-opacity:1">
        <g
           transform="matrix(0.66666669,0,0,0.66666669,70.95237,189.83022)"
           id="layer1-3"
           inkscape:label="Capa 1"
           style="fill:#ffffff;fill-opacity:1">
          <g
             inkscape:label="Capa 1"
             id="layer1-8"
             transform="matrix(1.5359999,0,0,1.5359999,383.7381,-1067.9379)"
             style="fill:#ffffff;fill-opacity:1">
            <g
               id="cog2"
               sketch:type="MSLayerGroup"
               transform="matrix(0.12485916,0,0,0.12485916,3.0932607,1033.6287)"
               style="fill:#ffffff;fill-opacity:1">
              <path
                 style="fill:#ffffff;fill-opacity:1"
                 d="M 9.84375 3 C 9.6423772 3 9.5173352 3.096547 9.46875 3.2910156 C 9.3784838 3.6381441 9.2771223 4.284045 9.1660156 5.2285156 C 8.8395998 5.3328459 8.5243253 5.4653081 8.21875 5.625 L 6.78125 4.5097656 C 6.6909838 4.4403399 6.6000318 4.40625 6.5097656 4.40625 C 6.356978 4.40625 6.0288867 4.6537988 5.5253906 5.1503906 C 5.0218946 5.6469825 4.6806602 6.0215263 4.5 6.2714844 C 4.4374785 6.3617506 4.40625 6.4403399 4.40625 6.5097656 C 4.40625 6.5931276 4.4403399 6.6765315 4.5097656 6.7597656 C 4.9750328 7.322331 5.3471694 7.8012963 5.625 8.1972656 C 5.4513719 8.5166494 5.3159204 8.8368663 5.21875 9.15625 L 3.28125 9.4472656 C 3.2049201 9.4612019 3.1396016 9.5075266 3.0839844 9.5839844 C 3.0283671 9.6603143 3 9.7390315 3 9.8222656 L 3 12.134766 C 3 12.22516 3.0283671 12.307982 3.0839844 12.380859 C 3.1396016 12.453865 3.2124682 12.495957 3.3027344 12.509766 L 5.2089844 12.791016 C 5.3061548 13.13124 5.4472012 13.475137 5.6347656 13.822266 C 5.5098505 13.995894 5.3222237 14.240581 5.0722656 14.556641 C 4.8223076 14.8727 4.6450902 15.104117 4.5410156 15.25 C 4.4853984 15.326586 4.4589844 15.406872 4.4589844 15.490234 C 4.4589844 15.580501 4.4826648 15.65909 4.53125 15.728516 C 4.8020485 16.103644 5.3749551 16.686961 6.25 17.478516 C 6.3264578 17.554973 6.4125952 17.59375 6.5097656 17.59375 C 6.6139681 17.59375 6.7020587 17.562394 6.7714844 17.5 L 8.2402344 16.384766 C 8.525097 16.530649 8.8375102 16.66025 9.1777344 16.771484 L 9.46875 18.6875 C 9.4757821 18.777766 9.5150128 18.85304 9.5878906 18.912109 C 9.6607684 18.971307 9.7465796 19 9.84375 19 L 12.15625 19 C 12.357879 19 12.482537 18.903453 12.53125 18.708984 C 12.621388 18.361728 12.722878 17.715955 12.833984 16.771484 C 13.1604 16.667282 13.475803 16.534692 13.78125 16.375 L 15.21875 17.5 C 15.31592 17.562394 15.407 17.59375 15.490234 17.59375 C 15.642894 17.59375 15.968834 17.346655 16.46875 16.853516 C 16.968922 16.360504 17.312691 15.985506 17.5 15.728516 C 17.562521 15.65909 17.59375 15.580501 17.59375 15.490234 C 17.59375 15.399968 17.559788 15.311622 17.490234 15.228516 C 16.990318 14.617365 16.618182 14.138272 16.375 13.791016 C 16.513851 13.534026 16.649303 13.218751 16.78125 12.84375 L 18.708984 12.552734 C 18.792218 12.538798 18.860526 12.492473 18.916016 12.416016 C 18.971505 12.339558 19 12.260968 19 12.177734 L 19 9.8652344 C 19.000128 9.7749682 18.971761 9.6921463 18.916016 9.6191406 C 18.860271 9.546135 18.787532 9.5040428 18.697266 9.4902344 L 16.791016 9.1972656 C 16.686813 8.8639456 16.545767 8.5249907 16.365234 8.1777344 C 16.490149 8.0041062 16.677776 7.7594189 16.927734 7.4433594 C 17.177692 7.1272999 17.354782 6.8958834 17.458984 6.75 C 17.514602 6.6735422 17.541016 6.5931276 17.541016 6.5097656 C 17.541016 6.4125952 17.517463 6.3368673 17.46875 6.28125 C 17.218792 5.9269616 16.645885 5.3362254 15.75 4.5097656 C 15.666894 4.4403399 15.580373 4.40625 15.490234 4.40625 C 15.386032 4.40625 15.302756 4.4376064 15.240234 4.5 L 13.759766 5.6152344 C 13.474903 5.4693509 13.16249 5.3396223 12.822266 5.2285156 L 12.53125 3.3125 C 12.524346 3.2222338 12.484987 3.14696 12.412109 3.0878906 C 12.339104 3.0288213 12.253676 3 12.15625 3 L 9.84375 3 z M 11 8.0996094 C 11.544326 8.0996094 12.046158 8.2336979 12.505859 8.5019531 C 12.965465 8.7702084 13.329401 9.1341441 13.597656 9.59375 C 13.865816 10.053356 14 10.555332 14 11.099609 C 14 11.643839 13.865864 12.145815 13.597656 12.605469 C 13.329401 13.065075 12.965465 13.429058 12.505859 13.697266 C 12.046253 13.965521 11.544278 14.099609 11 14.099609 C 10.455722 14.099609 9.9537945 13.965521 9.4941406 13.697266 C 9.0344868 13.42901 8.670599 13.065027 8.4023438 12.605469 C 8.1341364 12.145767 8 11.643887 8 11.099609 C 8 10.55538 8.1340405 10.053404 8.4023438 9.59375 C 8.670599 9.1340962 9.0344868 8.7701604 9.4941406 8.5019531 C 9.9537465 8.2336979 10.455722 8.0996094 11 8.0996094 z M 10.117188 9.6113281 C 10.046851 9.6113281 9.9869798 9.6360671 9.9375 9.6855469 L 9.5859375 10.037109 C 9.5364577 10.086589 9.5117188 10.146461 9.5117188 10.216797 C 9.5117187 10.284496 9.5364577 10.343146 9.5859375 10.392578 L 10.292969 11.099609 L 9.5859375 11.806641 C 9.5364577 11.856072 9.5117188 11.914723 9.5117188 11.982422 C 9.5117187 12.05271 9.5364577 12.112678 9.5859375 12.162109 L 9.9375 12.513672 C 9.9869798 12.563152 10.046851 12.587891 10.117188 12.587891 C 10.184887 12.587891 10.243489 12.563152 10.292969 12.513672 L 11 11.806641 L 11.707031 12.513672 C 11.756415 12.563152 11.815113 12.587891 11.882812 12.587891 C 11.953149 12.587891 12.01302 12.563152 12.0625 12.513672 L 12.414062 12.162109 C 12.463542 12.112678 12.488281 12.05271 12.488281 11.982422 C 12.488281 11.914723 12.463542 11.856072 12.414062 11.806641 L 11.707031 11.099609 L 12.414062 10.392578 C 12.463542 10.343146 12.488281 10.284496 12.488281 10.216797 C 12.488281 10.146461 12.463542 10.086589 12.414062 10.037109 L 12.0625 9.6855469 C 12.01302 9.6360671 11.953149 9.6113281 11.882812 9.6113281 C 11.815113 9.6113281 11.756415 9.6360671 11.707031 9.6855469 L 11 10.392578 L 10.292969 9.6855469 C 10.243489 9.6360671 10.184887 9.6113281 10.117188 9.6113281 z "
                 transform="matrix(7.8213127,0,0,7.8213127,-23.035938,-23.034939)"
                 id="path4463" />
            </g>
          </g>
        </g>
      </g>
      <g
         style="fill:#ffffff;fill-opacity:1"
         transform="matrix(0.375,0,0,0.375,211.25,340.32638)"
         inkscape:label="Capa 1"
         id="layer1-83">
        <g
           style="fill:#ffffff;fill-opacity:1"
           transform="matrix(0.89258405,0,0,0.89258405,-148.61667,17.577336)"
           id="layer1-8-5"
           inkscape:label="Capa 1">
          <g
             style="fill:#ffffff;fill-opacity:1"
             transform="matrix(0.14324114,0,0,0.14324114,536.15337,581.15537)"
             sketch:type="MSLayerGroup"
             id="cross41" />
        </g>
      </g>
    </g>
  </g>
</svg>

<svg xmlns="http://www.w3.org/2000/svg" viewBox="0 0 22 22"><defs><clipPath><path fill="#00f" fill-opacity=".514" d="m-7 1024.36h34v34h-34z"/></clipPath><clipPath><path fill="#aade87" fill-opacity=".472" d="m-6 1028.36h32v32h-32z"/></clipPath><clipPath><path d="m69.63 12.145h-.052c-22.727-.292-46.47 4.077-46.709 4.122-2.424.451-4.946 2.974-5.397 5.397-.044.237-4.414 23.983-4.122 46.71-.292 22.777 4.078 46.523 4.122 46.761.451 2.423 2.974 4.945 5.398 5.398.237.044 23.982 4.413 46.709 4.121 22.779.292 46.524-4.077 46.761-4.121 2.423-.452 4.946-2.976 5.398-5.399.044-.236 4.413-23.981 4.121-46.709.292-22.777-4.077-46.523-4.121-46.761-.453-2.423-2.976-4.946-5.398-5.397-.238-.045-23.984-4.414-46.71-4.122"/></clipPath></defs><path d="m9.844 3c-.201 0-.326.097-.375.291-.09.347-.192.993-.303 1.937-.326.104-.642.237-.947.396l-1.438-1.115c-.09-.069-.181-.104-.271-.104-.153 0-.481.248-.984.744-.503.497-.845.871-1.025 1.121-.063.09-.094.169-.094.238 0 .083.034.167.104.25.465.563.837 1.042 1.115 1.438-.174.319-.309.64-.406.959l-1.938.291c-.076.014-.142.06-.197.137-.056.076-.084.155-.084.238v2.313c0 .09.028.173.084.246.056.073.128.115.219.129l1.906.281c.097.34.238.684.426 1.031-.125.174-.313.418-.563.734-.25.316-.427.547-.531.693-.056.077-.082.157-.082.24 0 .09.024.169.072.238.271.375.844.958 1.719 1.75.076.076.163.115.26.115.104 0 .192-.031.262-.094l1.469-1.115c.285.146.597.275.938.387l.291 1.916c.007.09.046.166.119.225.073.059.159.088.256.088h2.313c.202 0 .326-.097.375-.291.09-.347.192-.993.303-1.938.326-.104.642-.237.947-.396l1.438 1.125c.097.062.188.094.271.094.153 0 .479-.247.979-.74.5-.493.844-.868 1.031-1.125.063-.069.094-.148.094-.238 0-.09-.034-.179-.104-.262-.5-.611-.872-1.09-1.115-1.438.139-.257.274-.572.406-.947l1.928-.291c.083-.014.152-.06.207-.137.055-.076.084-.155.084-.238v-2.312c0-.09-.028-.173-.084-.246-.056-.073-.128-.115-.219-.129l-1.906-.293c-.104-.333-.245-.672-.426-1.02.125-.174.313-.418.563-.734.25-.316.427-.547.531-.693.056-.076.082-.157.082-.24 0-.097-.024-.173-.072-.229-.25-.354-.823-.945-1.719-1.771-.083-.069-.17-.104-.26-.104-.104 0-.187.031-.25.094l-1.48 1.115c-.285-.146-.597-.276-.938-.387l-.291-1.916c-.007-.09-.046-.166-.119-.225-.073-.059-.158-.088-.256-.088h-2.313m1.156 5.1c.544 0 1.046.134 1.506.402.46.268.824.632 1.092 1.092.268.46.402.962.402 1.506 0 .544-.134 1.046-.402 1.506-.268.46-.632.824-1.092 1.092-.46.268-.962.402-1.506.402-.544 0-1.046-.134-1.506-.402-.46-.268-.824-.632-1.092-1.092-.268-.46-.402-.962-.402-1.506 0-.544.134-1.046.402-1.506.268-.46.632-.824 1.092-1.092.46-.268.962-.402 1.506-.402m-.883 1.512c-.07 0-.13.025-.18.074l-.352.352c-.049.049-.074.109-.074.18 0 .068.025.126.074.176l.707.707-.707.707c-.049.049-.074.108-.074.176 0 .07.025.13.074.18l.352.352c.049.049.109.074.18.074.068 0 .126-.025.176-.074l.707-.707.707.707c.049.049.108.074.176.074.07 0 .13-.025.18-.074l.352-.352c.049-.049.074-.109.074-.18 0-.068-.025-.126-.074-.176l-.707-.707.707-.707c.049-.049.074-.108.074-.176 0-.07-.025-.13-.074-.18l-.352-.352c-.049-.049-.109-.074-.18-.074-.068 0-.126.025-.176.074l-.707.707-.707-.707c-.049-.049-.108-.074-.176-.074" transform="translate(0 .008)" fill="#fff"/></svg>
